brandFactory_export/1.Light/Programar alarma _1Light.svg

<?xml version="1.0" encoding="UTF-8"?>
<svg width="24px" height="24px" viewBox="0 0 24 24" version="1.1" xmlns="http://www.w3.org/2000/svg" xmlns:xlink="http://www.w3.org/1999/xlink">
    <title>1.Light/Programar alarma _1Light</title>
    <g id="Symbols" stroke="none" stroke-width="1" fill="none" fill-rule="evenodd">
        <g id="1.Light/Programar-alarma-_1Light" fill="#5CB615" fill-rule="nonzero">
            <path d="M4.22857143,19.0823529 L21.9563025,19.0823529 C19.9462185,16.5680672 20.1512605,12.8537815 20.1613445,12.6789916 L20.1613445,8.04705882 C20.1613445,5.7210084 19.5058824,3.92941176 18.2184874,2.72605042 C16.1680672,0.806722689 13.1563025,0.98487395 13.1260504,0.994957983 C13.1159664,0.994957983 13.1058824,0.98487395 13.0957983,0.98487395 C13.0756303,0.98487395 13.0655462,0.994957983 13.0554622,0.994957983 C12.8571429,0.974789916 8.5210084,0.739495798 6.76638655,4.39327731 C10.9344538,4.42352941 13.3781513,6.56134454 13.3781513,11.112605 C13.3781513,15.687395 10.907563,17.8252101 6.68907563,17.8252101 C6.11092437,17.8252101 5.5697479,17.7848739 5.05882353,17.697479 C4.82689076,18.205042 4.55462185,18.6789916 4.22857143,19.0823529 Z M14.9647059,21.9394958 C15.4857143,21.3579832 15.5731092,20.5310924 15.5831933,20.0705882 L10.6084034,20.0705882 C10.6084034,20.5344538 10.6957983,21.3613445 11.2168067,21.9394958 C11.6302521,22.4033613 12.2655462,22.6386555 13.092437,22.6386555 C13.9226891,22.6386555 14.5512605,22.4033613 14.9647059,21.9394958 Z M0.981512605,11.1092437 C0.981512605,14.9613445 2.85378151,16.8336134 6.69243697,16.8336134 C10.5310924,16.8336134 12.4033613,14.9613445 12.4033613,11.1092437 C12.4033613,7.25042017 10.5277311,5.37815126 6.69243697,5.37815126 C2.85714286,5.37815126 0.981512605,7.24705882 0.981512605,11.1092437 Z M23.4420168,19.2 C23.6504202,19.3680672 23.6840336,19.6773109 23.5159664,19.8857143 C23.4252101,20 23.2840336,20.0672269 23.1394958,20.0672269 L16.5647059,20.0672269 C16.5546218,20.6789916 16.4268908,21.7714286 15.7008403,22.5915966 C15.092437,23.2806723 14.2084034,23.6235294 13.092437,23.6235294 C11.9731092,23.6235294 11.0890756,23.2806723 10.4806723,22.5915966 C9.74453782,21.7647059 9.62689076,20.6689076 9.62689076,20.0705882 L3.05210084,20.0705882 C2.78319328,20.0705882 2.56470588,19.8521008 2.56470588,19.5831933 C2.56470588,19.4352941 2.63193277,19.2941176 2.74621849,19.2033613 C3.27731092,18.7596639 3.72773109,18.1781513 4.08067227,17.4789916 C1.47563025,16.7092437 0,14.6386555 0,11.1092437 C0,6.91428571 2.08403361,4.76638655 5.67394958,4.44033613 C7.48907563,-0.151260504 12.6487395,-0.0100840336 13.0890756,0.0100840336 C13.394958,-0.0100840336 16.5815126,-0.14789916 18.887395,2 C20.3798319,3.40168067 21.1428571,5.43865546 21.1428571,8.05042017 L21.1428571,12.712605 C21.1361345,12.7865546 20.907563,17.112605 23.4420168,19.2 L23.4420168,19.2 Z M9.09579832,13.7042017 C8.99831933,13.8016807 8.88067227,13.8521008 8.75294118,13.8521008 C8.62184874,13.8521008 8.49411765,13.7983193 8.4,13.7042017 L6.34957983,11.6470588 C6.25546218,11.5529412 6.20168067,11.4252101 6.20168067,11.2941176 L6.20168067,8.49411765 C6.20168067,8.21848739 6.41680672,8.00336134 6.69243697,8.00336134 C6.96806723,8.00336134 7.18319328,8.21848739 7.18319328,8.49411765 L7.18319328,11.0957983 L9.09579832,13.0184874 C9.29411765,13.2 9.29411765,13.512605 9.09579832,13.7042017 Z" id="Programar-alarma-_1Light"></path>
        </g>
    </g>
</svg>

<svg width="24" height="24" viewBox="0 0 24 24" xmlns="http://www.w3.org/2000/svg"><path d="M4.229 19.082h17.727c-2.01-2.514-1.805-6.228-1.795-6.403V8.047c0-2.326-.655-4.118-1.943-5.32C16.168.806 13.156.984 13.126.994c-.01 0-.02-.01-.03-.01-.02 0-.03.01-.04.01-.199-.02-4.535-.256-6.29 3.398 4.168.03 6.612 2.168 6.612 6.72 0 4.574-2.47 6.712-6.689 6.712-.578 0-1.12-.04-1.63-.128a6.494 6.494 0 01-.83 1.385zm10.736 2.857c.52-.581.608-1.408.618-1.868h-4.975c0 .463.088 1.29.609 1.868.413.464 1.049.7 1.875.7.83 0 1.46-.236 1.873-.7zM.982 11.11c0 3.852 1.872 5.725 5.71 5.725 3.84 0 5.711-1.873 5.711-5.725 0-3.859-1.875-5.73-5.71-5.73-3.836 0-5.711 1.868-5.711 5.73zm22.46 8.091a.49.49 0 01.074.686.485.485 0 01-.377.181h-6.574c-.01.612-.138 1.704-.864 2.525-.609.689-1.493 1.032-2.609 1.032-1.119 0-2.003-.343-2.611-1.032-.736-.827-.854-1.923-.854-2.521H3.052a.488.488 0 01-.306-.868c.531-.443.982-1.025 1.335-1.724C1.476 16.709 0 14.639 0 11.109 0 6.914 2.084 4.766 5.674 4.44 7.489-.15 12.649-.01 13.089.01c.306-.02 3.493-.158 5.798 1.99 1.493 1.402 2.256 3.439 2.256 6.05v4.663c-.007.074-.235 4.4 2.299 6.487zM9.096 13.704a.477.477 0 01-.343.148.502.502 0 01-.353-.148l-2.05-2.057a.502.502 0 01-.148-.353v-2.8c0-.276.215-.49.49-.49.276 0 .491.214.491.49v2.602l1.913 1.922a.47.47 0 010 .686z" fill="#5CB615" fill-rule="nonzero"/></svg>
